fe/src/assets/icons/add.svg

<svg width="33" height="32" viewBox="0 0 33 32" fill="none" xmlns="http://www.w3.org/2000/svg">
<path fill-rule="evenodd" clip-rule="evenodd" d="M15.4409 32H17.869V18.3316C17.869 17.8991 18.2198 17.5483 18.6523 17.5483H32.3241V15.1202H18.6523C18.2198 15.1202 17.8692 14.7697 17.869 14.3372V0.665345H15.4409V14.3372C15.4409 14.7697 15.0903 15.1202 14.6576 15.1202H0.989197V17.5483H14.6576C15.0903 17.5483 15.4409 17.8991 15.4409 18.3316V32Z" fill="white"/>
</svg>

<svg width="33" height="32" fill="none" xmlns="http://www.w3.org/2000/svg"><path fill-rule="evenodd" clip-rule="evenodd" d="M15.44 32h2.429V18.332c0-.433.35-.784.783-.784h13.672V15.12H18.652a.783.783 0 0 1-.783-.783V.665h-2.428v13.672c0 .433-.35.783-.783.783H.989v2.428h13.669c.432 0 .783.351.783.784V32z" fill="#fff"/></svg>
